assets/icons/qvision/nightlife.svg

<svg xmlns="http://www.w3.org/2000/svg" enable-background="new 0 0 24 24" height="24" viewBox="0 0 24 24" width="24"><g><rect fill="none" height="24" width="24"/></g><g><path d="M1,5h14l-6,9v4h2v2H5v-2h2v-4L1,5z M10.1,9l1.4-2H4.49l1.4,2H10.1z M17,5h5v3h-3v9h0c0,1.66-1.34,3-3,3s-3-1.34-3-3 s1.34-3,3-3c0.35,0,0.69,0.06,1,0.17L17,5z"/></g></svg>

<svg width="24" height="24" viewBox="0 0 24 24" fill="none" xmlns="http://www.w3.org/2000/svg">
<g clip-path="url(#clip0_147_5538)">
<path d="M1 5H15L9 14V18H11V20H5V18H7V14L1 5ZM10.1 9L11.5 7H4.49L5.89 9H10.1ZM17 5H22V8H19V17C19 18.66 17.66 20 16 20C14.34 20 13 18.66 13 17C13 15.34 14.34 14 16 14C16.35 14 16.69 14.06 17 14.17V5Z" fill="#323232"/>
</g>
<defs>
<clipPath id="clip0_147_5538">
<rect width="24" height="24" fill="white"/>
</clipPath>
</defs>
</svg>
